svg/nomie.svg

<svg style="vertical-align:middle; margin-right:20px;" viewBox="0 0 832 560" version="1.1" xmlns="http://www.w3.org/2000/svg" xmlns:xlink="http://www.w3.org/1999/xlink">
      <defs>
          <radialGradient cx="50.7318437%" cy="15.3618722%" fx="50.7318437%" fy="15.3618722%" r="100%" gradientTransform="translate(0.507318,0.153619),scale(0.712025,1.000000),rotate(90.000000),translate(-0.507318,-0.153619)" id="radialGradient-1">
              <stop stop-color="#43AAE1" offset="0%"></stop>
              <stop stop-color="#2A77C3" offset="100%"></stop>
          </radialGradient>
          <path d="M783.341985,421.936568 C791.447011,431.811344 812.729628,463.171139 795.285246,503.101006 C795.285246,503.101007 791.282458,509.016487 791.109031,501.156959 C793.395045,480.277867 788.517318,462.337267 779.083024,457.690217 C774.480876,485.13152 766.929152,511.569317 756.795039,536.672386 C756.795039,539.862647 740.195519,542.452421 719.718616,542.452421 C699.241715,542.452421 682.642195,539.862647 682.642195,536.672386 C674.285666,493.192636 637.774104,460.032142 591.966472,460.032142 C546.530683,460.032142 508.622582,492.344557 500.21496,536.037748 C500.21496,541.464892 471.988966,545.867508 437.171985,545.867508 C402.352168,545.867508 374.129011,541.464892 373.69756,535.866994 C383.581201,510.225384 388.999886,482.355428 388.999886,453.219043 C388.999886,429.20861 385.319595,406.063681 378.49586,384.314226 C378.403524,383.762004 378.309442,383.211991 378.213633,382.664176 L379.811679,386.87244 C379.21567,384.862853 378.577341,382.871528 377.897661,380.899507 C356.804592,265.786732 258.995493,249.085174 258.995493,249.085174 C249.865828,246.521259 240.597756,245.112178 231.003579,245.112178 C177.901014,245.112178 134.852399,288.273186 134.852399,341.514392 C134.852399,386.215036 165.198749,423.806606 206.359764,434.720655 C219.618374,438.477251 227.784725,453.981745 227.784725,471.76012 C227.784725,492.373015 214.469345,509.084175 198.045812,509.084175 C195.993581,509.084175 193.989604,508.822351 191.883441,507.98281 C102.456655,489.085995 35.3290867,410.672751 35.3290867,315.388977 C35.3290867,294.494337 38.295314,274.271329 44.2760229,255.363132 C94.2278579,106.900761 234.253655,0 399.181568,0 C435.727191,0 471.052261,5.24785038 504.444316,15.0320747 C505.134256,14.4681211 508.299363,13 509.799363,12 C525.423001,-4.5765284 725.519313,4.42189472 736.93362,82.2292097 C743.37613,96.7139284 742.130693,113.235763 741.997963,130.746606 C741.742499,164.444977 728.234103,193.555748 728.234103,193.555748 C728.234103,193.555748 728.799363,193 737.782799,211.547564 C763.50808,262.517738 784.305732,333.861752 784.305732,394.778367 C784.305732,403.910961 783.980562,412.967232 783.341985,421.936568 Z" id="path-2"></path>
          <filter x="-1.0%" y="-1.4%" width="102.0%" height="102.7%" filterUnits="objectBoundingBox" id="filter-3">
              <feGaussianBlur stdDeviation="6.5" in="SourceAlpha" result="shadowBlurInner1"></feGaussianBlur>
              <feOffset dx="0" dy="2" in="shadowBlurInner1" result="shadowOffsetInner1"></feOffset>
              <feComposite in="shadowOffsetInner1" in2="SourceAlpha" operator="arithmetic" k2="-1" k3="1" result="shadowInnerInner1"></feComposite>
              <feColorMatrix values="0 0 0 0 1   0 0 0 0 1   0 0 0 0 1  0 0 0 0.206804801 0" type="matrix" in="shadowInnerInner1"></feColorMatrix>
          </filter>
      </defs>
      <g id="Page-1" stroke="none" stroke-width="1" fill="none" fill-rule="evenodd">
          <g id="nomie-1024">
              <ellipse id="Oval-1" fill="#000000" fill-rule="nonzero" opacity="0.181442482" cx="416" cy="537.0347" rx="416" ry="22.9652997"></ellipse>
              <polyline id="Fill-1" fill="#246A8B" fill-rule="nonzero" points="98.9214437 211.697392 110.357837 187.255521 284.399151 235.908222 224.849373 330.347003 130.326863 307.217217 98.9214437 211.697392"></polyline>
              <g id="Combined-Shape" fill-rule="nonzero" transform="translate(418.649681, 272.933754) scale(-1, 1) translate(-418.649681, -272.933754) ">
                  <use fill="url(#radialGradient-1)" fill-rule="evenodd" xlink:href="#path-2"></use>
                  <use fill="black" fill-opacity="1" filter="url(#filter-3)" xlink:href="#path-2"></use>
              </g>
              <path d="M631.37243,492.848284 C637.648548,492.329407 642.005641,482.821427 641.105044,471.614269 C640.204447,460.404261 634.388446,451.743019 628.112327,452.261895 C621.833403,452.783622 617.476311,462.291603 618.376908,473.498761 C619.277504,484.705917 625.096311,493.370011 631.37243,492.848284 Z" id="Fill-8" fill-opacity="0.339334239" fill="#000000" fill-rule="nonzero"></path>
              <path d="M455.745223,176.656151 C464.179244,178.588222 472.431359,180.952645 480.475584,183.722397 C480.339878,183.673759 480.209946,183.627821 480.071352,183.579181 C472.154171,180.871579 464.037762,178.555797 455.745223,176.656151" id="Fill-10" fill="#D4D1CD" fill-rule="nonzero"></path>
              <path d="M443.380042,173.123028 C448.051108,174.003627 452.678056,175.039282 457.244339,176.227067 C465.163643,178.283748 472.914744,180.790969 480.475584,183.722397 C467.650834,178.570454 455.115613,175.217742 443.380042,173.123028" id="Fill-11" fill="#161616" fill-rule="nonzero"></path>
              <g id="Fill-3-2-+-Fill-6-2-+-Oval-2-2" transform="translate(419.340764, 140.429022) scale(-1, 1) translate(-419.340764, -140.429022) translate(345.840764, 72.429022)" fill-rule="nonzero">
                  <path d="M33.8403174,135.045841 C33.6183644,134.90393 33.3971988,134.760888 33.1768279,134.616726 L31.5762625,133.577806 C30.4270195,132.783541 29.3208155,131.927823 28.2215896,131.079063 C27.3317407,130.379879 26.4488712,129.701565 25.5974079,128.973394 C24.7587397,128.262614 23.9584569,127.513571 23.151196,126.765687 C22.1589847,125.833441 21.1749165,124.895399 20.2280712,123.917932 L19.3638115,123.062214 L19.466174,123.074968 C7.42006118,110.129045 0,92.8314848 0,73.7703086 C0,58.7175576 3.8746234,44.8393888 11.7413538,33.2500922 C24.8541228,13.2439168 47.4597767,0 73.1897908,0 C113.743641,0 146.615711,32.8257117 146.615711,73.3192592 C146.615711,92.5466734 139.201817,110.0447 127.072154,123.119432 C116.684368,120.044329 105.407534,118.359621 93.6220807,118.359621 C70.8936437,118.359621 50.0568523,124.625341 33.8403174,135.045841 Z" id="Combined-Shape" fill="#FFFFFF"></path>
                  <path d="M83.9328496,45.5545205 C82.8260644,52.9183691 76.5488789,58.5876206 68.8894779,58.5876206 C60.4544155,58.5876206 53.6182676,51.7332655 53.6182676,43.2835786 C53.6182676,40.363362 54.4759507,37.6588955 55.9027221,35.3312303 C36.5395446,36.5669789 21.1974522,52.658052 21.1974522,72.3631827 C21.1974522,92.8877586 37.8063224,109.526814 58.2874238,109.526814 C78.7725761,109.526814 95.388535,92.8867451 95.388535,72.3631827 C95.3865101,61.8177877 90.9786077,52.3197402 83.9328496,45.5545205" id="Fill-6-2" fill="#000000"></path>
              </g>
              <path d="M262.002741,192 C226.336074,286.666667 172.169408,303.666667 99.5027409,243 C99.0027409,243 167.002741,327 228.502741,276.5 C228.19851,276.195769 239.18619,267.006099 250.765505,251.071045 C258.216639,240.817051 265.912753,227.769962 271.002741,212.5 C271.002741,212.5 268.002741,205.666667 262.002741,192 Z" id="Path-2" fill-opacity="0.408797554" fill="#000000" transform="translate(185.251370, 242.329328) scale(-1, 1) translate(-185.251370, -242.329328) "></path>
          </g>
      </g>
  </svg>

<svg xmlns="http://www.w3.org/2000/svg" xmlns:xlink="http://www.w3.org/1999/xlink" style="vertical-align:middle;margin-right:20px" viewBox="0 0 832 560"><defs><radialGradient id="b" cx="50.732%" cy="15.362%" r="100%" fx="50.732%" fy="15.362%" gradientTransform="matrix(0 1 -.71203 0 .617 -.354)"><stop offset="0%" stop-color="#43AAE1"/><stop offset="100%" stop-color="#2A77C3"/></radialGradient><filter id="c" width="102%" height="102.7%" x="-1%" y="-1.4%" filterUnits="objectBoundingBox"><feGaussianBlur in="SourceAlpha" result="shadowBlurInner1" stdDeviation="6.5"/><feOffset dy="2" in="shadowBlurInner1" result="shadowOffsetInner1"/><feComposite in="shadowOffsetInner1" in2="SourceAlpha" k2="-1" k3="1" operator="arithmetic" result="shadowInnerInner1"/><feColorMatrix in="shadowInnerInner1" values="0 0 0 0 1 0 0 0 0 1 0 0 0 0 1 0 0 0 0.206804801 0"/></filter><path id="a" d="M783.342 421.937c8.105 9.874 29.388 41.234 11.943 81.164 0 0-4.003 5.915-4.176-1.944 2.286-20.88-2.592-38.82-12.026-43.467a377.833 377.833 0 0 1-22.288 78.982c0 3.19-16.6 5.78-37.076 5.78-20.477 0-37.077-2.59-37.077-5.78-8.356-43.48-44.868-76.64-90.676-76.64-45.435 0-83.343 32.313-91.751 76.006 0 5.427-28.226 9.83-63.043 9.83-34.82 0-63.043-4.403-63.474-10.001C383.58 510.225 389 482.355 389 453.219c0-24.01-3.68-47.155-10.504-68.905-.092-.552-.187-1.102-.282-1.65l1.598 4.208c-.596-2.01-1.235-4-1.914-5.972-21.093-115.113-118.903-131.815-118.903-131.815-9.13-2.564-18.397-3.973-27.991-3.973-53.103 0-96.152 43.161-96.152 96.402 0 44.701 30.347 82.293 71.508 93.207 13.258 3.756 21.425 19.26 21.425 37.04 0 20.612-13.316 37.323-29.74 37.323-2.051 0-4.055-.262-6.162-1.101-89.426-18.897-156.554-97.31-156.554-192.594 0-20.895 2.966-41.118 8.947-60.026C94.228 106.901 234.254 0 399.182 0c36.545 0 71.87 5.248 105.262 15.032.69-.564 3.855-2.032 5.355-3.032 15.624-16.577 215.72-7.578 227.135 70.23 6.442 14.484 5.197 31.006 5.064 48.517-.256 33.698-13.764 62.809-13.764 62.809s.565-.556 9.549 17.992c25.725 50.97 46.523 122.314 46.523 183.23 0 9.133-.325 18.19-.964 27.159"/></defs><g fill="none" fill-rule="evenodd"><ellipse cx="416" cy="537.035" fill="#000" fill-rule="nonzero" opacity=".181" rx="416" ry="22.965"/><path fill="#246A8B" fill-rule="nonzero" d="m98.921 211.697 11.437-24.441 174.041 48.652-59.55 94.439-94.522-23.13z"/><g fill-rule="nonzero" transform="matrix(-1 0 0 1 837.3 0)"><use xlink:href="#a" fill="url(#b)" fill-rule="evenodd"/><use xlink:href="#a" fill="#000" filter="url(#c)"/></g><path fill="#000" fill-opacity=".339" fill-rule="nonzero" d="M631.372 492.848c6.277-.519 10.634-10.027 9.733-21.234-.9-11.21-6.717-19.871-12.993-19.352-6.279.522-10.636 10.03-9.735 21.237.9 11.207 6.72 19.871 12.995 19.35"/><path fill="#D4D1CD" fill-rule="nonzero" d="M455.745 176.656a241.809 241.809 0 0 1 24.73 7.066 63.688 63.688 0 0 0-.404-.143 242.51 242.51 0 0 0-24.326-6.923"/><path fill="#161616" fill-rule="nonzero" d="M443.38 173.123c4.671.88 9.298 1.916 13.864 3.104a210.904 210.904 0 0 1 23.232 7.495c-12.825-5.152-25.36-8.504-37.096-10.599"/><g fill-rule="nonzero"><path fill="#FFF" d="M459 207.475c.222-.142.444-.285.664-.43l1.6-1.038c1.15-.794 2.256-1.65 3.355-2.499.89-.7 1.773-1.377 2.624-2.106.839-.71 1.64-1.46 2.447-2.207a86.689 86.689 0 0 0 2.923-2.848l.864-.856-.102.013c12.046-12.946 19.466-30.243 19.466-49.305 0-15.052-3.875-28.93-11.742-40.52-13.112-20.006-35.718-33.25-61.448-33.25-40.554 0-73.426 32.826-73.426 73.32 0 19.227 7.414 36.725 19.544 49.8 10.387-3.076 21.664-4.76 33.45-4.76 22.728 0 43.565 6.265 59.781 16.686"/><path fill="#000" d="M408.908 117.984c1.107 7.363 7.384 13.033 15.043 13.033 8.435 0 15.271-6.855 15.271-15.304 0-2.92-.857-5.625-2.284-7.953 19.363 1.236 34.705 17.327 34.705 37.032 0 20.525-16.609 37.164-37.09 37.164-20.485 0-37.1-16.64-37.1-37.164.001-10.545 4.41-20.043 11.455-26.808"/></g><path fill="#000" fill-opacity=".409" d="M108.5 192c35.667 94.667 89.833 111.667 162.5 51 .5 0-67.5 84-129 33.5.304-.304-10.683-9.494-22.263-25.429-7.45-10.254-15.147-23.301-20.237-38.571z"/></g></svg>
